X:1
T:Bätgleggli-Juiz  2006  Bb
T:Franz von Holzen (26.12.1961)
T:Dirigenten-Notiz: Edi Gasser
C:Unterwalden (CH)
%%partsbox
%P:ABC
R:Naturjodel
M:3/4
L:1/4
K:Bb
"Einleitung" F|BFd | BFd | ccd | B2 ||
M:3/4
[P:A]  F| BdG | cec | fec | d2G | cec | fdB | cde | B2 G | 
egB | dfF | d2B | egB | dfF | Afd | B2 || 
M:3/4
[P:B] F/B/ | dde/d/ | dBB/d/ | ffe/d/ | c2c/B/ | AFe/d/ | 
cAF/A/ | cce | d2F/d/ | Bd>e | dBB/d/ | fd>e | 
c2c/d/ | cAf/f/ | ecF | c/e/dc | B2 ||
M:3/4
[P:C]  (3F/B/c/ | d/d/f>e | dB>F | ded | c2e/d/ | cFc/d/ | cAF/A/ | 
cde | d2F | dfe/e/ | dBB/A/ | Gfe | G2G | g/f/eB | f/e/dF | 
A/c/fe | d2B | gfe | fdF | ddc | B2F | df>e | dB>F | ded | 
c2e/d/ | ccF | c/d/AF/A/ | cde | d2F | dfe/e/ | dBB/A/ | Ggf | G2G | 
g/f/eB | f/e/dF | A/c/fe | d2B | gfe | fdF | ddc | B2F | 
B2d | B2F | A2c | B2F | BBd | BBF | AAf | B2 |]
W:
W:Reihenfolge: A - B - C
W:notiert Edi Gasser. Angaben: Franz von Holzen
W:UJV-Naturjodelsammlung: Code-Nr: 64-01
W:http://www.naturjodler.ch/code 64.htm  (without AUDIO, Oct 2018)
%October 07, 2018

